X:89
T:Purphy's Jig
C:Brian Finnegan
S:Kathryn Tickell: Signs
Z:robin.beech@mcgill.ca
R:jig
M:6/8
L:1/8
K:Amin
A3 AGA | cAA AGE | F2 c3 D | E2 B3 ^G | A3 AGA | cAA AGE |dcB GEG | ^G2A3B |
A3 AGA | cAA AGE | F2c2 de | d2 B3 ^G | A3 AGA | cAA dAe|AfA dcA | ^GABA3  ::
EAc cBA | EAc cBA | GBd dBG | FAc E2D | EAc cBA  | EAc cBA | edB cdc |
A3- A2^d | ecA Aec | cdB g2a | dcB ABc | B2A B2A |EAc eAc | DGB dcd | cBA ^GAB | A3 A2 G :|
